X: 63
T:Miss Gordon of Liverpool
M:6/8
L:1/8
C:Wm. Marshall
R:Jig
K:F
|: C| "F"F3 "Bb"F2d | "F"cAF F3 | "C7"E/F/GG GAF | EDE CDE |!
 "F"F3 "Dm"F2d | "C7"cde "F"f2c | "Bb"d/e/fd "C7"e/f/ge | "F"f3- f2 :|!
|| g | "F"afc "C7"bge | "F"afc c3 | "Bb"def "G7"gaf | "C7"e3 c3 |!
 "F"afc "C7"bge | "F"afc "Dm"AFD | "F"C2F "C7"E/F/GE | "F"F3- F2 ||!
|| g | "F"afc "C7"bge | "F"afc c3 | "Bb"def "G7"gaf | "C7"e2d c3|!
 "Bb"dBf "F"cAf | "Bb"dcB "F"cAF | "F"C2F "C7"E/F/GE | "F"F3- F2 |]
% <A name="D1X064">
